X:147
T:Lloyd's Whim
M:4/4
L:1/8
Q:180
C:Trad. arr. J.T.
R:Processional
N:Aeolian mode arrangement
K:G
GE GB FD F2 | GE GB F2 E2 | GE GB FD F2 |
G A FG E2 E2 :||: B2 AB GA F2 | BB AB G2 F2 |
B2 AB GF GA | BG AF E2 E2 :||
